src/icons/Sun.svg

<svg width="24" height="24" viewBox="0 0 24 24" fill="black"
    xmlns="http://www.w3.org/2000/svg">
    <path
        d="M12 2C12.3525 2 12.6383 2.28578 12.6383 2.6383V6.04255C12.6383 6.39508 12.3525 6.68085 12 6.68085C11.6475 6.68085 11.3617 6.39508 11.3617 6.04255V2.6383C11.3617 2.28578 11.6475 2 12 2Z" />
    <path fill-rule="evenodd" clip-rule="evenodd"
        d="M12 17.1064C14.8202 17.1064 17.1064 14.8202 17.1064 12C17.1064 9.17982 14.8202 6.89362 12 6.89362C9.17982 6.89362 6.89362 9.17982 6.89362 12C6.89362 14.8202 9.17982 17.1064 12 17.1064ZM12 15.8298C14.1151 15.8298 15.8298 14.1151 15.8298 12C15.8298 9.88487 14.1151 8.17021 12 8.17021C9.88487 8.17021 8.17021 9.88487 8.17021 12C8.17021 14.1151 9.88487 15.8298 12 15.8298Z" />
    <path
        d="M12.6383 17.9574C12.6383 17.6049 12.3525 17.3191 12 17.3191C11.6475 17.3191 11.3617 17.6049 11.3617 17.9574V21.3617C11.3617 21.7142 11.6475 22 12 22C12.3525 22 12.6383 21.7142 12.6383 21.3617V17.9574Z" />
    <path
        d="M2 12C2 11.6475 2.28578 11.3617 2.6383 11.3617H6.04255C6.39508 11.3617 6.68085 11.6475 6.68085 12C6.68085 12.3525 6.39508 12.6383 6.04255 12.6383H2.6383C2.28578 12.6383 2 12.3525 2 12Z" />
    <path
        d="M17.9574 11.3617C17.6049 11.3617 17.3191 11.6475 17.3191 12C17.3191 12.3525 17.6049 12.6383 17.9574 12.6383H21.3617C21.7142 12.6383 22 12.3525 22 12C22 11.6475 21.7142 11.3617 21.3617 11.3617H17.9574Z" />
    <path
        d="M4.9289 19.0712C4.67963 18.8219 4.67963 18.4178 4.9289 18.1685L7.33608 15.7613C7.58535 15.5121 7.9895 15.5121 8.23877 15.7613C8.48804 16.0106 8.48804 16.4147 8.23877 16.664L5.83159 19.0712C5.58232 19.3205 5.17818 19.3205 4.9289 19.0712Z" />
    <path
        d="M15.7609 7.33614C15.5116 7.58541 15.5116 7.98956 15.7609 8.23883C16.0101 8.4881 16.4143 8.4881 16.6635 8.23883L19.0707 5.83166C19.32 5.58239 19.32 5.17824 19.0707 4.92897C18.8214 4.6797 18.4173 4.6797 18.168 4.92897L15.7609 7.33614Z" />
    <path
        d="M4.92881 4.9289C5.17808 4.67963 5.58223 4.67963 5.8315 4.9289L8.23867 7.33608C8.48794 7.58535 8.48794 7.9895 8.23867 8.23877C7.9894 8.48804 7.58525 8.48804 7.33598 8.23877L4.92881 5.83159C4.67954 5.58232 4.67954 5.17818 4.92881 4.9289Z" />
    <path
        d="M16.6643 15.7617C16.415 15.5124 16.0109 15.5124 15.7616 15.7617C15.5123 16.011 15.5123 16.4151 15.7616 16.6644L18.1688 19.0715C18.418 19.3208 18.8222 19.3208 19.0714 19.0715C19.3207 18.8223 19.3207 18.4181 19.0714 18.1689L16.6643 15.7617Z" />
</svg>

<svg width="24" height="24" fill="currentColor" xmlns="http://www.w3.org/2000/svg"><path d="M12 2c.352 0 .638.286.638.638v3.405a.638.638 0 0 1-1.276 0V2.638c0-.352.286-.638.638-.638z"/><path fill-rule="evenodd" clip-rule="evenodd" d="M12 17.106a5.106 5.106 0 1 0 0-10.212 5.106 5.106 0 0 0 0 10.212zm0-1.276a3.83 3.83 0 1 0 0-7.66 3.83 3.83 0 0 0 0 7.66z"/><path d="M12.638 17.957a.638.638 0 0 0-1.276 0v3.405a.638.638 0 0 0 1.276 0v-3.405zM2 12c0-.352.286-.638.638-.638h3.405a.638.638 0 0 1 0 1.276H2.638A.638.638 0 0 1 2 12zM17.957 11.362a.638.638 0 0 0 0 1.276h3.405a.638.638 0 0 0 0-1.276h-3.405zM4.929 19.071a.638.638 0 0 1 0-.902l2.407-2.408a.638.638 0 0 1 .903.903l-2.407 2.407a.638.638 0 0 1-.903 0zM15.76 7.336a.638.638 0 1 0 .903.903l2.408-2.407a.638.638 0 1 0-.903-.903l-2.407 2.407zM4.929 4.929c.25-.25.653-.25.902 0L8.24 7.336a.638.638 0 0 1-.903.903L4.929 5.832a.638.638 0 0 1 0-.903zM16.664 15.762a.638.638 0 1 0-.902.902l2.407 2.407a.638.638 0 1 0 .902-.902l-2.407-2.407z"/></svg>
